X: 1
T: Elverumspols
R: polska
M: 3/4
L: 1/8
S: Mattias Helje, Anders Almlöf, Zara Helje & Perjos Lars Halvarsson
K: DMajor
(3A2BA3 FA | (3:2:4GEGF3 F2 | (3:2:4G2BBA2 AC | C2 D2 D2 :|
|: (3C2DE3 F2 | (3:2:4GEGF3 F2 | (3C2DE3 F2 | (3:2:4GEGF3 F2 | 
(3:2:4GEGF3 F2 | (3:2:4GEGF3 F2 | (3G2BB A2 AC | C2 D2 D2 :|

